Newaita-dark/actions/32/object-order-front.svg

<svg height="32" viewBox="0 0 32 32" width="32" xmlns="http://www.w3.org/2000/svg"><g fill="#e0e0e0"><path d="m3.308594 6.867188h25.136718c.367188 0 .660157-.296876.660157-.664063v-1.324219c0-.363281-.292969-.660156-.660157-.660156h-25.136718c-.367188 0-.664063.296875-.664063.660156v1.324219c0 .367187.296875.664063.664063.664063zm0 0"/><path d="m15.214844 28.695312h13.230468c.367188 0 .660157-.296874.660157-.660156v-1.324218c0-.367188-.292969-.660157-.660157-.660157h-13.230468c-.363282 0-.660156.292969-.660156.660157v1.324218c0 .363282.296874.660156.660156.660156zm0 0"/><path d="m15.214844 21.417969h13.230468c.367188 0 .660157-.296875.660157-.660157v-1.324218c0-.363282-.292969-.660156-.660157-.660156h-13.230468c-.363282 0-.660156.296874-.660156.660156v1.324218c0 .363282.296874.660157.660156.660157zm0 0"/><path d="m15.214844 14.140625h13.230468c.367188 0 .660157-.292969.660157-.660156v-1.324219c0-.363281-.292969-.660156-.660157-.660156h-13.230468c-.363282 0-.660156.296875-.660156.660156v1.324219c0 .367187.296874.660156.660156.660156zm0 0"/><path d="m5.953125 14.140625h2.648437v13.875c0 .367187-.296874.664063-.664062.664063h-1.324219c-.363281 0-.660156-.296876-.660156-.664063zm0 0"/><path d="m11.90625 16.125h-9.261719l4.632813-6.613281zm0 0"/></g></svg>

<svg xmlns="http://www.w3.org/2000/svg" xmlns:xlink="http://www.w3.org/1999/xlink" width="32px" height="32px" viewBox="0 0 32 32" version="1.1">
<g id="surface1">
     <defs>
  <style id="current-color-scheme" type="text/css">
   .ColorScheme-Text { color:#eeeeee; } .ColorScheme-Highlight { color:#424242; }
  </style>
 </defs>
<path style="fill:currentColor" class="ColorScheme-Text" d="M 3.308594 6.867188 L 28.445312 6.867188 C 28.8125 6.867188 29.105469 6.570312 29.105469 6.203125 L 29.105469 4.878906 C 29.105469 4.515625 28.8125 4.21875 28.445312 4.21875 L 3.308594 4.21875 C 2.941406 4.21875 2.644531 4.515625 2.644531 4.878906 L 2.644531 6.203125 C 2.644531 6.570312 2.941406 6.867188 3.308594 6.867188 Z M 3.308594 6.867188 "/>
     <defs>
  <style id="current-color-scheme" type="text/css">
   .ColorScheme-Text { color:#eeeeee; } .ColorScheme-Highlight { color:#424242; }
  </style>
 </defs>
<path style="fill:currentColor" class="ColorScheme-Text" d="M 15.214844 28.695312 L 28.445312 28.695312 C 28.8125 28.695312 29.105469 28.398438 29.105469 28.035156 L 29.105469 26.710938 C 29.105469 26.34375 28.8125 26.050781 28.445312 26.050781 L 15.214844 26.050781 C 14.851562 26.050781 14.554688 26.34375 14.554688 26.710938 L 14.554688 28.035156 C 14.554688 28.398438 14.851562 28.695312 15.214844 28.695312 Z M 15.214844 28.695312 "/>
     <defs>
  <style id="current-color-scheme" type="text/css">
   .ColorScheme-Text { color:#eeeeee; } .ColorScheme-Highlight { color:#424242; }
  </style>
 </defs>
<path style="fill:currentColor" class="ColorScheme-Text" d="M 15.214844 21.417969 L 28.445312 21.417969 C 28.8125 21.417969 29.105469 21.121094 29.105469 20.757812 L 29.105469 19.433594 C 29.105469 19.070312 28.8125 18.773438 28.445312 18.773438 L 15.214844 18.773438 C 14.851562 18.773438 14.554688 19.070312 14.554688 19.433594 L 14.554688 20.757812 C 14.554688 21.121094 14.851562 21.417969 15.214844 21.417969 Z M 15.214844 21.417969 "/>
     <defs>
  <style id="current-color-scheme" type="text/css">
   .ColorScheme-Text { color:#eeeeee; } .ColorScheme-Highlight { color:#424242; }
  </style>
 </defs>
<path style="fill:currentColor" class="ColorScheme-Text" d="M 15.214844 14.140625 L 28.445312 14.140625 C 28.8125 14.140625 29.105469 13.847656 29.105469 13.480469 L 29.105469 12.15625 C 29.105469 11.792969 28.8125 11.496094 28.445312 11.496094 L 15.214844 11.496094 C 14.851562 11.496094 14.554688 11.792969 14.554688 12.15625 L 14.554688 13.480469 C 14.554688 13.847656 14.851562 14.140625 15.214844 14.140625 Z M 15.214844 14.140625 "/>
     <defs>
  <style id="current-color-scheme" type="text/css">
   .ColorScheme-Text { color:#eeeeee; } .ColorScheme-Highlight { color:#424242; }
  </style>
 </defs>
<path style="fill:currentColor" class="ColorScheme-Text" d="M 5.953125 14.140625 L 8.601562 14.140625 L 8.601562 28.015625 C 8.601562 28.382812 8.304688 28.679688 7.9375 28.679688 L 6.613281 28.679688 C 6.25 28.679688 5.953125 28.382812 5.953125 28.015625 Z M 5.953125 14.140625 "/>
     <defs>
  <style id="current-color-scheme" type="text/css">
   .ColorScheme-Text { color:#eeeeee; } .ColorScheme-Highlight { color:#424242; }
  </style>
 </defs>
<path style="fill:currentColor" class="ColorScheme-Text" d="M 11.90625 16.125 L 2.644531 16.125 L 7.277344 9.511719 Z M 11.90625 16.125 "/>
</g>
</svg>
